build/img/SVG/map-marker.svg

<?xml version="1.0" encoding="utf-8"?>
<!-- Generated by IcoMoon.io -->
<!DOCTYPE svg PUBLIC "-//W3C//DTD SVG 1.1//EN" "http://www.w3.org/Graphics/SVG/1.1/DTD/svg11.dtd">
<svg version="1.1" xmlns="http://www.w3.org/2000/svg" xmlns:xlink="http://www.w3.org/1999/xlink" width="32" height="56" viewBox="0 0 32 56">
<path fill="#444444" d="M24 20q0-3.312-2.344-5.656t-5.656-2.344-5.656 2.344-2.344 5.656 2.344 5.656 5.656 2.344 5.656-2.344 2.344-5.656zM32 20q0 3.406-1.031 5.594l-11.375 24.188q-0.5 1.031-1.484 1.625t-2.109 0.594-2.109-0.594-1.453-1.625l-11.406-24.188q-1.031-2.188-1.031-5.594 0-6.625 4.687-11.312t11.312-4.687 11.312 4.687 4.687 11.312z"></path>
</svg>

<svg xmlns="http://www.w3.org/2000/svg" width="32" height="56" viewBox="0 0 32 56"><path fill="#444" d="M24 20q0-3.312-2.344-5.656T16 12t-5.656 2.344T8 20t2.344 5.656T16 28t5.656-2.344T24 20zm8 0q0 3.406-1.03 5.594L19.593 49.782q-.5 1.03-1.484 1.625T16 52t-2.108-.593-1.453-1.625L1.032 25.594Q.003 23.406.003 20q0-6.625 4.686-11.312T16 4 27.314 8.69 32 20z"/></svg>
